Adwaita++-Dark/apps/16/effetti.svg

<svg height="16" viewBox="0 0 16 16" width="16" xmlns="http://www.w3.org/2000/svg" xmlns:xlink="http://www.w3.org/1999/xlink">
  <clipPath id="_clipPath_5DTu3VG2ONdnaHBzxE7Bcq9EEZGrmlGk">
    <path d="m0 0h16v16h-16z"/>
  </clipPath>
  <g clip-path="url(#_clipPath_5DTu3VG2ONdnaHBzxE7Bcq9EEZGrmlGk)">
    <path d="m0 0h16v16h-16z" fill="none"/>
    <g fill="#e6ddff">
      <path d="m3.994 1c-1.258.014-2.179-.031-2.931.385-.377.207-.674.559-.838.998-.165.438-.225.959-.225 1.617v8c0 .658.06 1.179.225 1.617.164.439.461.791.838.998.752.416 1.673.37 2.931.385h.004 8.004.004c1.258-.014 2.179.031 2.932-.385.376-.207.673-.559.838-.998.164-.438.224-.959.224-1.617v-8c0-.658-.06-1.179-.225-1.617-.164-.439-.461-.791-.837-.998-.753-.416-1.674-.37-2.932-.385h-.004-8.004zm.006 1h8c1.259.015 2.087.06 2.453.262.184.101.289.212.387.472.097.26.16.674.16 1.266v8c0 .592-.063 1.006-.16 1.266-.098.26-.203.371-.387.472-.366.202-1.194.247-2.453.262h-7.994-.006c-1.259-.015-2.089-.06-2.455-.262-.183-.101-.287-.212-.385-.472-.097-.26-.16-.674-.16-1.266v-8c0-.592.063-1.006.16-1.266.098-.26.202-.371.385-.472.366-.202 1.196-.247 2.455-.262z"/>
      <path d="m.81 1.91h14.406v2.359h-14.406z"/>
      <path d="m5.375 11.953c-.346 0-.879-1.992-1.123-2.236-.244-.245-2.236-.778-2.236-1.123 0-.346 1.992-.879 2.236-1.123.244-.245.777-2.237 1.123-2.237s.879 1.992 1.123 2.237c.244.244 2.236.777 2.236 1.123 0 .345-1.992.878-2.236 1.123-.244.244-.777 2.236-1.123 2.236z"/>
      <path d="m10.117 13.375c-.173 0-.439-.996-.561-1.118s-1.118-.389-1.118-.562c0-.172.996-.439 1.118-.561s.388-1.118.561-1.118.44.996.562 1.118 1.118.389 1.118.561c0 .173-.996.44-1.118.562s-.389 1.118-.562 1.118z"/>
      <path d="m11.445 9.344c-.213 0-.541-1.228-.692-1.378-.15-.151-1.378-.48-1.378-.693s1.228-.541 1.378-.692c.151-.15.479-1.378.692-1.378s.542 1.228.692 1.378c.151.151 1.379.479 1.379.692s-1.228.542-1.379.693c-.15.15-.479 1.378-.692 1.378z"/>
    </g>
  </g>
</svg>

<svg xmlns="http://www.w3.org/2000/svg" style="isolation:isolate" width="16" height="16" viewBox="0 0 16 16">
 <defs>
  <style id="current-color-scheme" type="text/css">
   .ColorScheme-Text { color:#E6DDFF; } .ColorScheme-Highlight { color:#5294e2; }
  </style>
  <linearGradient id="arrongin" x1="0%" x2="0%" y1="0%" y2="100%">
   <stop offset="0%" style="stop-color:#dd9b44"/>
   <stop offset="100%" style="stop-color:#ad6c16"/>
  </linearGradient>
  <linearGradient id="aurora" x1="0%" x2="0%" y1="0%" y2="100%">
   <stop offset="0%" style="stop-color:#09D4DF"/>
   <stop offset="100%" style="stop-color:#9269F4"/>
  </linearGradient>
  <linearGradient id="fitdance" x1="0%" x2="0%" y1="0%" y2="100%">
   <stop offset="0%" style="stop-color:#1AD6AB"/>
   <stop offset="100%" style="stop-color:#329DB6"/>
  </linearGradient>
  <linearGradient id="oomox" x1="0%" x2="0%" y1="0%" y2="100%">
   <stop offset="0%" style="stop-color:#efefe7"/>
   <stop offset="100%" style="stop-color:#8f8f8b"/>
  </linearGradient>
  <linearGradient id="rainblue" x1="0%" x2="0%" y1="0%" y2="100%">
   <stop offset="0%" style="stop-color:#00F260"/>
   <stop offset="100%" style="stop-color:#0575E6"/>
  </linearGradient>
  <linearGradient id="sunrise" x1="0%" x2="0%" y1="0%" y2="100%">
   <stop offset="0%" style="stop-color:#FF8501"/>
   <stop offset="100%" style="stop-color:#FFCB01"/>
  </linearGradient>
  <linearGradient id="telinkrin" x1="0%" x2="0%" y1="0%" y2="100%">
   <stop offset="0%" style="stop-color:#b2ced6"/>
   <stop offset="100%" style="stop-color:#6da5b7"/>
  </linearGradient>
  <linearGradient id="60spsycho" x1="0%" x2="0%" y1="0%" y2="100%">
   <stop offset="0%" style="stop-color:#df5940"/>
   <stop offset="25%" style="stop-color:#d8d15f"/>
   <stop offset="50%" style="stop-color:#e9882a"/>
   <stop offset="100%" style="stop-color:#279362"/>
  </linearGradient>
  <linearGradient id="90ssummer" x1="0%" x2="0%" y1="0%" y2="100%">
   <stop offset="0%" style="stop-color:#f618c7"/>
   <stop offset="20%" style="stop-color:#94ffab"/>
   <stop offset="50%" style="stop-color:#fbfd54"/>
   <stop offset="100%" style="stop-color:#0f83ae"/>
  </linearGradient>
  <clipPath id="_clipPath_5DTu3VG2ONdnaHBzxE7Bcq9EEZGrmlGk">
   <rect width="16" height="16"/>
  </clipPath>
 </defs>
 <g clip-path="url(#_clipPath_5DTu3VG2ONdnaHBzxE7Bcq9EEZGrmlGk)">
  <rect fill-opacity="0" width="16" height="16"/>
  <path style="fill:currentColor" class="ColorScheme-Text" d="M 3.994 1 C 2.736 1.014 1.815 0.969 1.063 1.385 C 0.686 1.592 0.389 1.944 0.225 2.383 C 0.06 2.821 0 3.342 0 4 L 0 12 C 0 12.658 0.06 13.179 0.225 13.617 C 0.389 14.056 0.686 14.408 1.063 14.615 C 1.815 15.031 2.736 14.985 3.994 15 L 3.998 15 L 12.002 15 L 12.006 15 C 13.264 14.986 14.185 15.031 14.938 14.615 C 15.314 14.408 15.611 14.056 15.776 13.617 C 15.94 13.179 16 12.658 16 12 L 16 4 C 16 3.342 15.94 2.821 15.775 2.383 C 15.611 1.944 15.314 1.592 14.938 1.385 C 14.185 0.969 13.264 1.015 12.006 1 L 12.002 1 L 3.998 1 L 3.994 1 Z M 4 2 L 12 2 C 13.259 2.015 14.087 2.06 14.453 2.262 C 14.637 2.363 14.742 2.474 14.84 2.734 C 14.937 2.994 15 3.408 15 4 L 15 12 C 15 12.592 14.937 13.006 14.84 13.266 C 14.742 13.526 14.637 13.637 14.453 13.738 C 14.087 13.94 13.259 13.985 12 14 L 4.006 14 L 4 14 C 2.741 13.985 1.911 13.94 1.545 13.738 C 1.362 13.637 1.258 13.526 1.16 13.266 C 1.063 13.006 1 12.592 1 12 L 1 4 C 1 3.408 1.063 2.994 1.16 2.734 C 1.258 2.474 1.362 2.363 1.545 2.262 C 1.911 2.06 2.741 2.015 4 2 L 4 2 Z"/>
  <rect style="fill:currentColor" class="ColorScheme-Text" width="14.406" height="2.359" x=".81" y="1.91" transform="matrix(1,0,0,1,0,0)"/>
  <path style="fill:currentColor" class="ColorScheme-Text" d="M 5.375 11.953 C 5.029 11.953 4.496 9.961 4.252 9.717 C 4.008 9.472 2.016 8.939 2.016 8.594 C 2.016 8.248 4.008 7.715 4.252 7.471 C 4.496 7.226 5.029 5.234 5.375 5.234 C 5.721 5.234 6.254 7.226 6.498 7.471 C 6.742 7.715 8.734 8.248 8.734 8.594 C 8.734 8.939 6.742 9.472 6.498 9.717 C 6.254 9.961 5.721 11.953 5.375 11.953 L 5.375 11.953 Z"/>
  <path style="fill:currentColor" class="ColorScheme-Text" d="M 10.117 13.375 C 9.944 13.375 9.678 12.379 9.556 12.257 C 9.434 12.135 8.438 11.868 8.438 11.695 C 8.438 11.523 9.434 11.256 9.556 11.134 C 9.678 11.012 9.944 10.016 10.117 10.016 C 10.29 10.016 10.557 11.012 10.679 11.134 C 10.801 11.256 11.797 11.523 11.797 11.695 C 11.797 11.868 10.801 12.135 10.679 12.257 C 10.557 12.379 10.29 13.375 10.117 13.375 L 10.117 13.375 Z"/>
  <path style="fill:currentColor" class="ColorScheme-Text" d="M 11.445 9.344 C 11.232 9.344 10.904 8.116 10.753 7.966 C 10.603 7.815 9.375 7.486 9.375 7.273 C 9.375 7.06 10.603 6.732 10.753 6.581 C 10.904 6.431 11.232 5.203 11.445 5.203 C 11.658 5.203 11.987 6.431 12.137 6.581 C 12.288 6.732 13.516 7.06 13.516 7.273 C 13.516 7.486 12.288 7.815 12.137 7.966 C 11.987 8.116 11.658 9.344 11.445 9.344 L 11.445 9.344 Z"/>
 </g>
</svg>
